!!!OTL: "Der Schlemmer" IN HOLLAND UND BRABANT DA SIND VIEL SCHOENE STAEDT
!!!ARE: Europa, Mitteleuropa, Deutschland, Rhein
!!!SCT: Z1337
!!!YEM: Copyright 1995, estate of Helmut Schaffrath.
**kern
*ICvox
*Ivox
*M4/4
*k[f#]
*G:
{4d
=1
2g
4f#
4g
=2
2a
4g
4a
=3
4b
4dd
4cc
4a
=4
2g
4r}
{8g
8a
=5
4b
4b
4b
8a
8b
=6
4.cc
8dd
4cc
8cc
8b
=7
4a
8a
8a
4a
4b
=8
4.dd
8ee
4dd}
{4dd
=9
2g
4r
4b
=10
2a
4r
8g
8a
=11
4b
4b
8dd
8cc
4a
=12
2g
4r}
==
!!!AGN: Zech -, Schalks - Lied
!!!ONB: ESAC (Essen Associative Code) Database: ZUCCAL
!!!AMT: simple quadruple
!!!AIN: vox
!!!EED: Helmut Schaffrath
!!!EEV: 1.0
*-
